svgs/solid/handcuffs.svg

<svg xmlns="http://www.w3.org/2000/svg" viewBox="0 0 640 512"><!--! Font Awesome Pro 6.2.0 by @fontawesome - https://fontawesome.com License - https://fontawesome.com/license (Commercial License) Copyright 2022 Fonticons, Inc. --><path d="M304 32c0 17.7-14.3 32-32 32s-32-14.3-32-32s14.3-32 32-32s32 14.3 32 32zM192 112c-17.7 0-32-14.3-32-32s14.3-32 32-32s32 14.3 32 32s-14.3 32-32 32zm-32 16c17.7 0 32 14.3 32 32h8c13.3 0 24 10.7 24 24v16c0 1.7-.2 3.4-.5 5.1C280.3 229.6 320 286.2 320 352c0 88.4-71.6 160-160 160S0 440.4 0 352c0-65.8 39.7-122.4 96.5-146.9c-.4-1.6-.5-3.3-.5-5.1V184c0-13.3 10.7-24 24-24h8c0-17.7 14.3-32 32-32zm0 320c53 0 96-43 96-96s-43-96-96-96s-96 43-96 96s43 96 96 96zm192-96c0-25.9-5.1-50.5-14.4-73.1c16.9-32.9 44.8-59.1 78.9-73.9c-.4-1.6-.5-3.3-.5-5.1V184c0-13.3 10.7-24 24-24h8c0-17.7 14.3-32 32-32s32 14.3 32 32h8c13.3 0 24 10.7 24 24v16c0 1.7-.2 3.4-.5 5.1C600.3 229.6 640 286.2 640 352c0 88.4-71.6 160-160 160c-62 0-115.8-35.3-142.4-86.9c9.3-22.5 14.4-47.2 14.4-73.1zm224 0c0-53-43-96-96-96s-96 43-96 96s43 96 96 96s96-43 96-96zM368 64c-17.7 0-32-14.3-32-32s14.3-32 32-32s32 14.3 32 32s-14.3 32-32 32zm80 48c-17.7 0-32-14.3-32-32s14.3-32 32-32s32 14.3 32 32s-14.3 32-32 32z"/></svg>

<svg xmlns="http://www.w3.org/2000/svg" viewBox="0 0 640 512"><!--! Font Awesome Pro 6.1.2 by @fontawesome - https://fontawesome.com License - https://fontawesome.com/license (Commercial License) Copyright 2022 Fonticons, Inc. --><path d="M304 32C304 49.67 289.7 64 272 64C254.3 64 240 49.67 240 32C240 14.33 254.3 0 272 0C289.7 0 304 14.33 304 32zM160 80C160 62.33 174.3 48 192 48C209.7 48 224 62.33 224 80C224 97.67 209.7 112 192 112C174.3 112 160 97.67 160 80zM160 128C177.7 128 192 142.3 192 160H200C213.3 160 224 170.7 224 184V200C224 201.7 223.8 203.4 223.5 205.1C280.3 229.6 320 286.2 320 352C320 440.4 248.4 512 160 512C71.63 512 0 440.4 0 352C0 286.2 39.74 229.6 96.54 205.1C96.19 203.4 96 201.7 96 200V184C96 170.7 106.7 160 120 160H128C128 142.3 142.3 128 160 128zM160 448C213 448 256 405 256 352C256 298.1 213 256 160 256C106.1 256 64 298.1 64 352C64 405 106.1 448 160 448zM337.6 278.9C354.5 246.1 382.5 219.8 416.5 205.1C416.2 203.4 416 201.7 416 199.1V183.1C416 170.7 426.7 159.1 440 159.1H448C448 142.3 462.3 127.1 480 127.1C497.7 127.1 512 142.3 512 159.1H520C533.3 159.1 544 170.7 544 183.1V199.1C544 201.7 543.8 203.4 543.5 205.1C600.3 229.6 640 286.2 640 352C640 440.4 568.4 512 480 512C417.1 512 364.2 476.7 337.6 425.1C346.9 402.5 352 377.9 352 352C352 326.1 346.9 301.5 337.6 278.9V278.9zM480 256C426.1 256 384 298.1 384 352C384 405 426.1 448 480 448C533 448 576 405 576 352C576 298.1 533 256 480 256zM336 32C336 14.33 350.3 0 368 0C385.7 0 400 14.33 400 32C400 49.67 385.7 64 368 64C350.3 64 336 49.67 336 32zM416 80C416 62.33 430.3 48 448 48C465.7 48 480 62.33 480 80C480 97.67 465.7 112 448 112C430.3 112 416 97.67 416 80z"/></svg>
